libs/ui/packages/crypto-icons/src/svg/QCK.svg

<svg width="19" height="19" viewBox="0 0 19 19" fill="none">
<path fill="#9b9b9b" d="M 5.777344 1.761719 C 4.316406 2.316406 3.582031 2.808594 2.394531 4.058594 C 1.1875 5.34375 0.515625 6.691406 0.179688 8.53125 C -0.0976562 10.113281 0.136719 11.757812 0.929688 13.398438 C 1.464844 14.566406 3.007812 16.347656 3.898438 16.863281 L 4.492188 17.199219 L 4.394531 16.25 C 4.316406 15.359375 4.355469 15.238281 5.066406 14.449219 C 6.097656 13.320312 6.988281 12.726562 10.210938 11.101562 C 11.738281 10.332031 13.398438 9.402344 13.914062 9.003906 C 16.742188 6.847656 15.992188 3.976562 12.074219 2.117188 C 10.945312 1.5625 10.550781 1.484375 8.808594 1.445312 C 7.222656 1.386719 6.609375 1.464844 5.777344 1.761719 Z M 5.777344 1.761719 "/>
<path fill="#9b9b9b" d="M 17.417969 11.855469 C 17.417969 12.351562 16.527344 13.082031 14.863281 13.953125 C 14.113281 14.347656 13.398438 14.882812 13.261719 15.160156 C 12.628906 16.308594 13.953125 17.613281 15.734375 17.613281 C 16.921875 17.613281 17.832031 17.121094 18.566406 16.03125 C 19.238281 15.042969 19.117188 13.222656 18.347656 12.191406 C 17.734375 11.398438 17.417969 11.28125 17.417969 11.855469 Z M 17.417969 11.855469 "/>
</svg>

<svg width="19" height="19" viewBox="0 0 19 19" fill="none"><path fill="#9b9b9b" d="M5.777 1.762c-1.46.554-2.195 1.047-3.382 2.297C1.188 5.344.515 6.69.18 8.53c-.278 1.582-.043 3.227.75 4.867.535 1.168 2.078 2.95 2.968 3.465l.594.336-.097-.949c-.079-.89-.04-1.012.671-1.8 1.032-1.13 1.922-1.723 5.145-3.348 1.527-.77 3.187-1.7 3.703-2.098 2.828-2.156 2.078-5.027-1.84-6.887-1.129-.554-1.523-.633-3.265-.672-1.586-.058-2.2.02-3.032.317m11.641 10.094c0 .497-.89 1.227-2.555 2.098-.75.395-1.465.93-1.601 1.207-.633 1.149.691 2.453 2.472 2.453 1.188 0 2.098-.492 2.832-1.582.672-.988.551-2.808-.218-3.84-.614-.793-.93-.91-.93-.336m0 0"/></svg>
